X:1527
L:1/16
M:2/4
K:F
 AB | c2>d2 cAFA | c2>d2 cAFA | BdBG AcAF | G2G2 G4 Bc | c2>d2 cAFA | AFAc f2ed | dedc dfd=B | 
 c2c2 c2 :: ef | g2>a2 gece | g2>a2 gece | fafd egec | d2d2 d2de | fedc BAGF | EGce gfed | 
 dcBA cBAG | F2F2 F2 :|

